contributed-vectors/groove_coaster_2.svg

<svg xmlns="http://www.w3.org/2000/svg" id="svg16" version="1.1" viewBox="0 0 192 192"><defs id="defs4"><style id="style2">.a{fill:none;stroke:#b1b5bd;stroke-linecap:round;stroke-linejoin:round;isolation:isolate;opacity:.63}</style></defs><path id="rect829" d="M72 20v8h-8v8h-8v8h-8v8h-8v8h-8v24h-8v8h-8v8H8v48h8v8h8v8h8v8h16V84h-8V68h8v-8h8v-8h8v-8h8v-8h48v8h8v8h8v8h8v8h8v16h-8v88h16v-8h8v-8h8v-8h8v-48h-8v-8h-8v-8h-8V60h-8v-8h-8v-8h-8v-8h-8v-8h-8v-8H72z" style="opacity:1;vector-effect:none;fill:#98dc9a;fill-opacity:1;fill-rule:evenodd;stroke:none;stroke-width:12;stroke-linecap:round;stroke-linejoin:round;stroke-miterlimit:4;stroke-dasharray:none;paint-order:stroke fill markers"/><path id="rect884" d="M72 96v8h8v-8zm8 8v8h-8v8h-8v8h-8v20h8v-12h8v16h8v-8h32v8h8v-16h8v12h8v-20h-8v-8h-8v-8h-8v-8h-8v8H88v-8zm32 0h8v-8h-8zm0 48h-8v8h8zm-32 0v8h8v-8zm0-32h8v8h-8zm24 0h8v8h-8z" style="opacity:1;vector-effect:none;fill:#96dfd3;fill-opacity:1;fill-rule:evenodd;stroke:none;stroke-width:12;stroke-linecap:round;stroke-linejoin:round;stroke-miterlimit:4;stroke-dasharray:none;paint-order:stroke fill markers"/></svg>

<?xml version="1.0" encoding="UTF-8" standalone="no"?>
<svg
   xmlns:dc="http://purl.org/dc/elements/1.1/"
   xmlns:cc="http://creativecommons.org/ns#"
   xmlns:rdf="http://www.w3.org/1999/02/22-rdf-syntax-ns#"
   xmlns:svg="http://www.w3.org/2000/svg"
   xmlns="http://www.w3.org/2000/svg"
   xmlns:sodipodi="http://sodipodi.sourceforge.net/DTD/sodipodi-0.dtd"
   xmlns:inkscape="http://www.inkscape.org/namespaces/inkscape"
   viewBox="0 0 192 192"
   version="1.1"
   id="svg16"
   sodipodi:docname="groove_coaster_2.svg"
   inkscape:version="0.92.4 (5da689c313, 2019-01-14)">
  <metadata
     id="metadata20">
    <rdf:RDF>
      <cc:Work
         rdf:about="">
        <dc:format>image/svg+xml</dc:format>
        <dc:type
           rdf:resource="http://purl.org/dc/dcmitype/StillImage" />
        <dc:title />
      </cc:Work>
    </rdf:RDF>
  </metadata>
  <sodipodi:namedview
     pagecolor="#ffffff"
     bordercolor="#666666"
     borderopacity="1"
     objecttolerance="10"
     gridtolerance="10"
     guidetolerance="10"
     inkscape:pageopacity="0"
     inkscape:pageshadow="2"
     inkscape:window-width="1920"
     inkscape:window-height="1017"
     id="namedview18"
     showgrid="true"
     inkscape:zoom="3.4766083"
     inkscape:cx="121.33071"
     inkscape:cy="79.724582"
     inkscape:window-x="-8"
     inkscape:window-y="-8"
     inkscape:window-maximized="1"
     inkscape:current-layer="svg16">
    <inkscape:grid
       type="xygrid"
       id="grid827"
       spacingx="4"
       spacingy="4" />
  </sodipodi:namedview>
  <defs
     id="defs4">
    <style
       id="style2">.a{fill:none;stroke:#b1b5bd;stroke-linecap:round;stroke-linejoin:round;isolation:isolate;opacity:0.63;}</style>
  </defs>
  <path
     style="opacity:1;vector-effect:none;fill:#98dc9a;fill-opacity:1;fill-rule:evenodd;stroke:none;stroke-width:12;stroke-linecap:round;stroke-linejoin:round;stroke-miterlimit:4;stroke-dasharray:none;paint-order:stroke fill markers"
     d="M 72 20 L 72 28 L 64 28 L 64 36 L 56 36 L 56 44 L 48 44 L 48 52 L 40 52 L 40 60 L 32 60 L 32 84 L 24 84 L 24 92 L 16 92 L 16 100 L 8 100 L 8 148 L 16 148 L 16 156 L 24 156 L 24 164 L 32 164 L 32 172 L 40 172 L 48 172 L 48 84 L 40 84 L 40 68 L 48 68 L 48 60 L 56 60 L 56 52 L 64 52 L 64 44 L 72 44 L 72 36 L 96 36 L 120 36 L 120 44 L 128 44 L 128 52 L 136 52 L 136 60 L 144 60 L 144 68 L 152 68 L 152 84 L 144 84 L 144 172 L 152 172 L 160 172 L 160 164 L 168 164 L 168 156 L 176 156 L 176 148 L 184 148 L 184 100 L 176 100 L 176 92 L 168 92 L 168 84 L 160 84 L 160 60 L 152 60 L 152 52 L 144 52 L 144 44 L 136 44 L 136 36 L 128 36 L 128 28 L 120 28 L 120 20 L 96 20 L 72 20 z "
     id="rect829" />
  <path
     style="opacity:1;vector-effect:none;fill:#96dfd3;fill-opacity:1;fill-rule:evenodd;stroke:none;stroke-width:12;stroke-linecap:round;stroke-linejoin:round;stroke-miterlimit:4;stroke-dasharray:none;paint-order:stroke fill markers"
     d="m 72,96 v 8 h 8 v -8 z m 8,8 v 8 h -8 v 8 h -8 v 8 h -8 v 20 h 8 v -12 h 8 v 8 8 h 8 v -8 h 16 16 v 8 h 8 v -8 -8 h 8 v 12 h 8 v -20 h -8 v -8 h -8 v -8 h -8 v -8 h -8 v 8 h -8 -8 v -8 z m 32,0 h 8 v -8 h -8 z m 0,48 h -8 v 8 h 8 z m -32,0 v 8 h 8 v -8 z m 0,-32 h 8 v 8 h -8 z m 24,0 h 8 v 8 h -8 z"
     id="rect884"
     inkscape:connector-curvature="0"
     sodipodi:nodetypes="ccccccccccccccccccccccccccccccccccccccccccccccccccccccccccccccccccc" />
</svg>
